svgs/trailforks.svg

<svg width="192" height="192" viewBox="0 0 192 192" fill="none" xmlns="http://www.w3.org/2000/svg"><path d="M28.3869 160.863C23.4778 160.863 20.4085 155.548 22.8646 151.297L90.4764 34.1897C92.9315 29.9368 99.0691 29.9368 101.523 34.1897L169.136 151.294C171.591 155.546 168.522 160.861 163.614 160.861L28.3869 160.863Z" stroke="black" stroke-width="12" stroke-linecap="round" stroke-linejoin="round"/><path d="M75.345 145.14V117.696C75.345 115.642 76.339 113.714 78.012 112.522L92.32 102.322C93.3949 101.556 94.6815 101.144 96.0014 101.142C97.3212 101.14 98.6089 101.549 99.686 102.312L114.082 112.522C114.91 113.11 115.585 113.887 116.05 114.789C116.516 115.691 116.76 116.691 116.76 117.706V145.139" stroke="black" stroke-width="12" stroke-linecap="round" stroke-linejoin="round"/><path d="M96 99.7V62.011" stroke="black" stroke-width="14" stroke-linecap="round" stroke-linejoin="round"/></svg>

<svg xmlns="http://www.w3.org/2000/svg" width="192" height="192" fill="none" viewBox="0 0 192 192"><path stroke="#000" stroke-linecap="round" stroke-linejoin="round" stroke-width="12" d="M28.387 160.863c-4.91 0-7.978-5.315-5.522-9.566L90.476 34.19c2.456-4.253 8.593-4.253 11.047 0l67.613 117.104c2.455 4.252-.614 9.567-5.522 9.567z"/><path stroke="#000" stroke-linecap="round" stroke-linejoin="round" stroke-width="12" d="M75.345 145.14v-27.444c0-2.054.994-3.982 2.667-5.174l14.308-10.2a6.36 6.36 0 0 1 7.366-.01l14.396 10.21a6.355 6.355 0 0 1 2.678 5.184v27.433"/><path stroke="#000" stroke-linecap="round" stroke-linejoin="round" stroke-width="14" d="M96 99.7V62.011"/></svg>
